package/converter/svg/solid/arrows-cross.svg

<svg xmlns="http://www.w3.org/2000/svg" viewBox="0 0 448 512"><!-- Font Awesome Pro 6.0.0-alpha2 by @fontawesome - https://fontawesome.com License - https://fontawesome.com/license (Commercial License) --><path d="M445.537 51.781C442.295 43.941 436.059 37.703 428.217 34.461C424.311 32.848 420.162 32 416 32H288C270.313 32 256 46.312 256 64S270.313 96 288 96H338.75L9.375 425.375C-3.125 437.875 -3.125 458.125 9.375 470.625C21.867 483.117 42.117 483.133 54.625 470.625L384 141.25V192C384 209.688 398.313 224 416 224S448 209.688 448 192V64C448 59.836 447.152 55.688 445.537 51.781ZM156.125 233.375L201.375 188.125L54.625 41.375C42.125 28.875 21.875 28.875 9.375 41.375C-3.117 53.867 -3.133 74.117 9.375 86.625L156.125 233.375ZM416 288C398.313 288 384 302.312 384 320V370.75L291.875 278.625L246.625 323.875L338.75 416H288C270.313 416 256 430.312 256 448S270.313 480 288 480H416C420.164 480 424.313 479.152 428.219 477.539C436.059 474.297 442.297 468.059 445.539 460.219C447.152 456.312 448 452.164 448 448V320C448 302.312 433.688 288 416 288Z"/></svg>

<svg xmlns="http://www.w3.org/2000/svg" viewBox="0 0 448 512"><!--! Font Awesome Pro 6.6.0 by @fontawesome - https://fontawesome.com License - https://fontawesome.com/license (Commercial License) Copyright 2024 Fonticons, Inc. --><path d="M288 32c-17.7 0-32 14.3-32 32s14.3 32 32 32l50.7 0L9.4 425.4c-12.5 12.5-12.5 32.8 0 45.3s32.8 12.5 45.3 0L384 141.3l0 50.7c0 17.7 14.3 32 32 32s32-14.3 32-32l0-128c0-17.7-14.3-32-32-32L288 32zM54.6 41.4c-12.5-12.5-32.8-12.5-45.3 0S-3.1 74.1 9.4 86.6L156.1 233.4l45.3-45.3L54.6 41.4zM338.7 416L288 416c-17.7 0-32 14.3-32 32s14.3 32 32 32l128 0c17.7 0 32-14.3 32-32l0-128c0-17.7-14.3-32-32-32s-32 14.3-32 32l0 50.7-92.1-92.1-45.3 45.3L338.7 416z"/></svg>
